X:1
T:Bro gozh
C:hymne breton, fichier abc : Bernard Loffet
L:1/8
Q:200
M:3/4
K:G
 z4 [G2G,,2G,2] | B2 [A2D,,2D,2] [G2G,,2G,2] | d2 [c2D,,2D,2] [B2G,,2G,2] | g2 [g2C,,2C,2] ef | \
 [g4C,,4C,4] e2 | [d2G,,2G,2] B2 G2 | [G2E,,2E,2] F2 [G2E,,2E,2] | [B2A,,2A,2] A2 A2 | \
 [A4D,,4D,4] d2 | [d4G,,4G,4] Bc | [d4G,,4G,4] ef | [g4C,,4C,4] ef | [g4C,,4C,4] e2 | \
 [d2G,,2G,2] B2 G2 | [A2D,,2D,2] B2 A2 | [G6G,,6G,6] | z6 | [d6G,,6G,6] | [g6G,,6G,6] | \
 [d2G,,2G,2] B2 G2 | [G2E,,2E,2] F2 [G2E,,2E,2] | [A6A,,6A,6] | z4 d2 | [d4G,,4G,4] Bc | \
 [d4G,,4G,4] ef | [g4C,,4C,4] ef | [g4C,,4C,4] e2 | [d2G,,2G,2] B2 G2 | [A2D,,2D,2] B2 A2 | \
 [G6G,,6G,6] | z6 | \
K:C
W:Created with TablEdit http://www.tabledit.com/ by Bernard Loffet
